src/img/svg/logo-bank/21.svg

<svg width="140" height="30" viewBox="0 0 140 30" fill="none" xmlns="http://www.w3.org/2000/svg">
<g clip-path="url(#clip0_34_3410)">
<path fill-rule="evenodd" clip-rule="evenodd" d="M12.4609 0.346924V6.97359L17.8276 0.346924H12.4609Z" fill="#50B748"/>
<path fill-rule="evenodd" clip-rule="evenodd" d="M0.84 3.52001C1.21333 2.91335 1.63333 2.44668 2.19333 1.98001L2.61333 1.70001C3.03333 1.46668 3.36 1.32668 3.82667 1.23335C4.10667 1.18668 4.34 1.14001 4.62 1.14001C4.99333 1.14001 5.32 1.18668 5.69333 1.28001C5.92667 1.37335 6.16 1.46668 6.44 1.56001C7 1.88668 7.42 2.21335 7.84 2.68001L8.12 3.10001C8.58667 3.80001 8.86667 4.45335 9.1 5.24668L9.24 5.76001C9.24 5.85335 9.28667 5.94668 9.28667 5.99335V0.34668H0V5.99335C0.0933333 5.38668 0.28 4.54668 0.56 3.94001L0.84 3.52001Z" fill="#50B748"/>
<path fill-rule="evenodd" clip-rule="evenodd" d="M21.7009 1.28052L12.4609 12.6205V15.2339C12.4609 15.1405 12.5076 15.0472 12.5076 15.0005L12.6476 14.4872C12.8809 13.6939 13.1609 13.0405 13.6276 12.3405L13.9543 11.9205C14.3276 11.5472 14.6543 11.2205 15.1209 10.9405C15.3543 10.8005 15.5876 10.7072 15.8209 10.6139C16.3809 10.4272 16.8476 10.3805 17.4076 10.3805L17.9209 10.4739C18.3876 10.5672 18.7143 10.7538 19.1343 10.9405C19.3676 11.0805 19.5543 11.2205 19.7409 11.4072C20.3476 11.9672 20.7676 12.5272 21.1409 13.2272L21.3276 13.6939C21.5143 14.1605 21.6076 14.8139 21.7009 15.2805V1.28052Z" fill="#50B748"/>
<path fill-rule="evenodd" clip-rule="evenodd" d="M17.0787 20.0868C15.7721 20.0868 14.6988 18.4068 14.6988 16.3534C14.6988 14.3001 15.7721 12.6201 17.0787 12.6201C18.3854 12.6201 19.4588 14.3001 19.4588 16.3534C19.4588 18.4068 18.3854 20.0868 17.0787 20.0868ZM17.0787 11.6868C15.2121 11.6868 13.7188 13.7868 13.7188 16.3534C13.7188 18.9201 15.2121 21.0201 17.0787 21.0201C18.9454 21.0201 20.4387 18.9201 20.4387 16.3534C20.4387 13.7868 18.9454 11.6868 17.0787 11.6868Z" fill="#50B748"/>
<path fill-rule="evenodd" clip-rule="evenodd" d="M12.6007 18.3121L12.4607 17.7521C12.4607 17.6588 12.4141 17.5655 12.4141 17.5188V23.1655H21.6541V17.5655C21.5141 18.1721 21.3741 18.9655 21.0941 19.5721L20.8607 20.0388C20.4874 20.6455 20.0674 21.1121 19.5074 21.5788L19.0874 21.8588C18.6674 22.0921 18.3407 22.2321 17.8741 22.3255C17.5941 22.3721 17.3607 22.4188 17.0807 22.4188C16.7074 22.4188 16.3807 22.3721 16.0074 22.2788C15.7741 22.1855 15.5407 22.0921 15.2607 21.9988C14.7007 21.6721 14.2807 21.3455 13.8607 20.8788L13.5341 20.4588C13.1141 19.8055 12.8341 19.1055 12.6007 18.3121Z" fill="#50B748"/>
<path fill-rule="evenodd" clip-rule="evenodd" d="M9.24 8.32739C9.24 8.42073 9.19333 8.51406 9.19333 8.56073L9.05333 9.07406C8.82 9.86739 8.54 10.5207 8.07333 11.2207L7.74667 11.6407C7.37333 12.0141 7.04667 12.3407 6.58 12.6207C6.34667 12.7607 6.11333 12.8541 5.88 12.9474C5.32 13.1341 4.85333 13.1807 4.29333 13.1807L3.78 13.0874C3.31333 12.9941 2.98667 12.8074 2.56667 12.6207C2.33333 12.4807 2.14667 12.3407 1.96 12.1541C1.35333 11.5941 0.933333 11.0341 0.56 10.3341C0.28 9.68073 0.0933333 9.02739 0 8.32739V22.2807L9.24 10.8941V8.32739Z" fill="#50B748"/>
<path fill-rule="evenodd" clip-rule="evenodd" d="M4.62172 10.8915C3.31505 10.8915 2.24172 9.21145 2.24172 7.20479C2.24172 5.15146 3.31505 3.47146 4.62172 3.47146C5.92839 3.47146 7.00172 5.15146 7.00172 7.20479C6.95505 9.21145 5.92839 10.8915 4.62172 10.8915ZM4.62172 2.49146C2.75505 2.49146 1.26172 4.59145 1.26172 7.15812C1.26172 9.72479 2.75505 11.8248 4.62172 11.8248C6.48839 11.8248 7.98172 9.72479 7.98172 7.15812C7.98172 4.59145 6.44172 2.49146 4.62172 2.49146Z" fill="#50B748"/>
<path fill-rule="evenodd" clip-rule="evenodd" d="M9.24167 16.5383L3.875 23.2117H9.24167V16.5383Z" fill="#50B748"/>
<path fill-rule="evenodd" clip-rule="evenodd" d="M21.4213 0.346924H18.8079L0.28125 23.2136H2.84792L21.4213 0.346924Z" fill="#50B748"/>
<path fill-rule="evenodd" clip-rule="evenodd" d="M11.6648 23.2148H10.0781V21.6282H11.6648V23.2148Z" fill="#50B748"/>
<path fill-rule="evenodd" clip-rule="evenodd" d="M22.4933 21.6282V23.2148C23.5667 23.2148 24.4533 24.1015 24.4533 25.1748C24.4533 26.2482 23.5667 27.1348 22.4933 27.1348C21.7 27.1348 20.9533 26.9482 19.46 26.5748C16.52 25.8748 12.9267 24.9882 10.0333 24.2415C4.80667 22.9348 0 24.3815 0 27.7415H1.58667C1.58667 26.4815 4.01333 25.6415 9.24 26.9482C13.7667 28.0682 15.4467 28.4882 18.8533 29.2815C21.0933 29.8415 22.9133 29.7015 24.2667 29.0482C25.5733 28.3948 26.5067 27.0415 26.5067 25.5015C26.46 23.4015 24.6867 21.6282 22.4933 21.6282Z" fill="#50B748"/>
<path d="M77.1875 19.7121H81.8075V17.5188H77.1875V19.7121Z" fill="#50B748"/>
<path d="M101.967 16.0736H97.5808V11.7803H95.1074V23.1669H97.5808V18.2669H101.967V23.2136H104.441V11.7803H101.967V16.0736ZM85.5408 18.9669V11.7803H83.0674V23.1669H84.9808L90.7208 15.9336V23.1669H93.1941V11.7803H91.2808L85.5408 18.9669ZM128.941 11.5469C127.354 11.5469 125.907 11.9669 124.741 13.0403C123.761 13.9269 122.921 15.4203 122.921 17.4736C122.921 19.1536 123.434 20.5536 124.741 21.8136C125.674 22.7003 126.934 23.4003 128.894 23.4003C130.107 23.4003 131.041 23.0736 131.694 22.7469L131.787 22.7003V19.6669L131.507 19.9936C130.901 20.7403 130.014 21.1603 129.034 21.1603C128.147 21.1603 127.214 20.8336 126.561 20.2269C125.861 19.6203 125.441 18.6869 125.441 17.5203C125.441 16.5403 125.814 15.6069 126.421 14.9069C127.027 14.2069 127.914 13.7869 128.987 13.7869C129.361 13.7869 130.574 13.8803 131.554 15.0003L131.834 15.2803V12.2469L131.741 12.2003C130.714 11.6869 129.734 11.5469 128.941 11.5469ZM73.5008 16.5869C73.0808 16.9136 72.6141 16.9136 72.1941 16.9136H71.4474V13.9269H72.0541C72.5674 13.9269 73.0808 13.9736 73.5008 14.2536C73.7808 14.4869 74.0608 14.8136 74.0608 15.4203C74.0608 15.8403 73.8741 16.3069 73.5008 16.5869ZM75.4141 12.6669C74.9941 12.2936 74.5274 12.0603 74.0608 11.9203C73.5474 11.7803 73.0341 11.7803 72.3808 11.7803H69.0208V23.1669H71.4941V19.0603H72.7541C74.0608 19.0603 75.0408 18.6869 75.6941 18.0336C76.5808 17.1469 76.6741 15.8869 76.6741 15.4669C76.5808 14.6269 76.3474 13.5069 75.4141 12.6669ZM132.534 11.7803V13.9269H135.054V23.1669H137.527V13.9269H140.047V11.7803H132.534ZM42.1874 23.2136H48.6274V21.0669H44.6141V18.3136H48.4408V16.1669H44.6141V13.9736H48.6274V11.8269H42.1874V23.2136ZM111.534 20.3203C111.441 20.5069 111.301 20.6936 111.067 20.8336C110.647 21.1136 110.041 21.1136 109.667 21.1136H108.874V18.3603H109.527C109.994 18.3603 110.507 18.3603 110.927 18.5469C111.254 18.6869 111.441 18.8736 111.534 19.1069C111.627 19.2936 111.674 19.5269 111.674 19.6669C111.627 19.9003 111.627 20.1336 111.534 20.3203ZM108.827 13.8336H109.294C109.714 13.8336 110.087 13.9269 110.367 14.1136C110.647 14.3003 110.787 14.5803 110.787 15.0936C110.787 15.4203 110.694 15.6536 110.601 15.8403C110.414 16.1203 110.181 16.2603 109.901 16.3069C109.621 16.4003 109.387 16.4003 109.247 16.4003H108.781V13.8336H108.827ZM112.141 17.0536C112.281 16.9603 112.467 16.8203 112.607 16.5869C112.887 16.2136 113.167 15.7003 113.167 14.9069C113.167 13.9269 112.747 13.0403 112.094 12.4803C111.161 11.7336 109.901 11.7336 109.294 11.7336H106.401V23.1203H110.274C111.254 23.1203 112.327 22.9336 113.167 22.1869C113.961 21.4869 114.147 20.5069 114.147 19.8069C114.147 19.2003 114.007 18.3136 113.307 17.6136C113.074 17.4736 112.701 17.1936 112.141 17.0536ZM115.501 23.2136H121.941V21.0669H117.927V18.3136H121.754V16.1669H117.927V13.9736H121.941V11.8269H115.501V23.2136ZM39.8541 11.7803H37.3808V21.0203H33.2741V11.7803H30.8008V23.1669H38.8741V25.6869H41.1608V21.0203H39.8074V11.7803H39.8541ZM57.1208 16.0736H52.7341V11.7803H50.2608V23.1669H52.7341V18.2669H57.1208V23.2136H59.5941V11.7803H57.1208V16.0736ZM60.5741 13.9269H63.0941V23.1669H65.5674V13.9269H68.0874V11.7803H60.6208V13.9269H60.5741ZM52.4541 3.80026H49.0474V0.39359H47.0408V9.49359H49.0474V5.57359H52.4541V9.49359H54.4608V0.39359H52.4541V3.80026ZM40.7408 5.94692L41.7674 3.33359L42.7941 5.94692H40.7408ZM40.9741 0.39359L37.1008 9.49359H39.2941L40.0874 7.62692H43.4008L44.1941 9.49359H46.3874L42.6074 0.39359H40.9741ZM59.7341 4.59359L63.6074 0.346924H61.0408L58.0074 3.80026V0.39359H56.0008V9.49359H58.0074V5.66692L58.0541 5.62026L61.1341 9.49359H63.7941L59.7341 4.59359ZM34.7208 7.34692C34.5341 7.53359 34.1608 7.67359 33.5074 7.67359H32.8541V5.62026H33.5541C34.2074 5.62026 34.5341 5.76026 34.7674 5.99359C34.9541 6.18026 35.0474 6.46026 35.0474 6.69359C35.0008 6.92692 34.9541 7.16026 34.7208 7.34692ZM36.1674 4.64026C35.4674 3.98692 34.5341 3.89359 33.8808 3.89359H32.8541V2.16692H36.2141V0.39359H30.8008V9.49359H33.8808C34.2541 9.49359 34.7674 9.44692 35.2341 9.30692C35.7008 9.16692 36.1674 8.88692 36.5408 8.37359C36.8674 7.90692 37.0541 7.34692 37.0541 6.69359C37.0541 5.80692 36.7274 5.10692 36.1674 4.64026Z" fill="#50B748"/>
</g>
<defs>
<clipPath id="clip0_34_3410">
<rect width="140" height="29.4" fill="white" transform="translate(0 0.300049)"/>
</clipPath>
</defs>
</svg>

<svg width="140" height="30" viewBox="0 0 140 30" fill="none" xmlns="http://www.w3.org/2000/svg"><g clip-path="url(#a)" fill="#50B748"><path fill-rule="evenodd" clip-rule="evenodd" d="M12.46.347v6.627L17.829.347H12.46ZM.84 3.52a6.066 6.066 0 0 1 1.353-1.54l.42-.28c.42-.233.747-.373 1.214-.467.28-.046.513-.093.793-.093.373 0 .7.047 1.073.14.234.093.467.187.747.28.56.327.98.653 1.4 1.12l.28.42c.467.7.747 1.353.98 2.147l.14.513c0 .093.047.187.047.233V.347H0v5.646c.093-.606.28-1.446.56-2.053l.28-.42ZM21.7 1.28l-9.24 11.34v2.614c0-.094.048-.187.048-.233l.14-.514c.233-.793.513-1.447.98-2.146l.326-.42c.374-.374.7-.7 1.167-.98.233-.14.467-.234.7-.327.56-.187 1.027-.234 1.587-.234l.513.094c.467.093.793.28 1.213.466.234.14.42.28.607.467a6.55 6.55 0 0 1 1.4 1.82l.187.467c.186.466.28 1.12.373 1.586v-14Z"/><path fill-rule="evenodd" clip-rule="evenodd" d="M17.079 20.087c-1.307 0-2.38-1.68-2.38-3.734 0-2.053 1.073-3.733 2.38-3.733 1.306 0 2.38 1.68 2.38 3.733 0 2.054-1.074 3.734-2.38 3.734Zm0-8.4c-1.867 0-3.36 2.1-3.36 4.666 0 2.567 1.493 4.667 3.36 4.667 1.866 0 3.36-2.1 3.36-4.667 0-2.566-1.494-4.666-3.36-4.666Z"/><path fill-rule="evenodd" clip-rule="evenodd" d="m12.6 18.312-.14-.56c0-.093-.046-.186-.046-.233v5.647h9.24v-5.6c-.14.606-.28 1.4-.56 2.006l-.233.467a6.065 6.065 0 0 1-1.354 1.54l-.42.28c-.42.233-.746.373-1.213.466-.28.047-.513.094-.793.094-.374 0-.7-.047-1.074-.14-.233-.093-.466-.187-.746-.28a5.481 5.481 0 0 1-1.4-1.12l-.327-.42c-.42-.654-.7-1.354-.933-2.147ZM9.24 8.327c0 .094-.047.187-.047.234l-.14.513c-.233.793-.513 1.447-.98 2.147l-.326.42c-.374.373-.7.7-1.167.98-.233.14-.467.233-.7.326-.56.187-1.027.234-1.587.234l-.513-.094c-.467-.093-.793-.28-1.213-.466-.234-.14-.42-.28-.607-.467a6.552 6.552 0 0 1-1.4-1.82A7.559 7.559 0 0 1 0 8.327v13.954l9.24-11.387V8.327Z"/><path fill-rule="evenodd" clip-rule="evenodd" d="M4.622 10.892c-1.307 0-2.38-1.68-2.38-3.687 0-2.054 1.073-3.734 2.38-3.734 1.306 0 2.38 1.68 2.38 3.734-.047 2.006-1.074 3.687-2.38 3.687Zm0-8.4c-1.867 0-3.36 2.1-3.36 4.666 0 2.567 1.493 4.667 3.36 4.667 1.866 0 3.36-2.1 3.36-4.667 0-2.567-1.54-4.667-3.36-4.667Zm4.62 14.046-5.367 6.674h5.367v-6.674ZM21.421.347h-2.613L.28 23.214h2.567L21.42.347Zm-9.756 22.868h-1.587v-1.587h1.587v1.587Z"/><path fill-rule="evenodd" clip-rule="evenodd" d="M22.493 21.628v1.587c1.074 0 1.96.887 1.96 1.96s-.886 1.96-1.96 1.96c-.793 0-1.54-.187-3.033-.56a556.11 556.11 0 0 1-9.427-2.334C4.807 22.935 0 24.381 0 27.741h1.587c0-1.26 2.426-2.1 7.653-.793 4.527 1.12 6.207 1.54 9.613 2.334 2.24.56 4.06.42 5.414-.234 1.306-.653 2.24-2.006 2.24-3.546-.047-2.1-1.82-3.874-4.014-3.874Z"/><path d="M77.188 19.712h4.62V17.52h-4.62v2.193Zm24.779-3.638h-4.386V11.78h-2.474v11.387h2.474v-4.9h4.386v4.947h2.474V11.78h-2.474v4.294Zm-16.426 2.893V11.78h-2.474v11.387h1.914l5.74-7.233v7.233h2.473V11.78h-1.913l-5.74 7.187Zm43.4-7.42c-1.587 0-3.034.42-4.2 1.493-.98.887-1.82 2.38-1.82 4.434 0 1.68.513 3.08 1.82 4.34.933.886 2.193 1.586 4.153 1.586a6.18 6.18 0 0 0 2.8-.653l.093-.047v-3.033l-.28.327a3.142 3.142 0 0 1-2.473 1.166c-.887 0-1.82-.326-2.473-.933-.7-.607-1.12-1.54-1.12-2.707 0-.98.373-1.913.98-2.613.606-.7 1.493-1.12 2.566-1.12.374 0 1.587.093 2.567 1.213l.28.28v-3.033l-.093-.047a6.203 6.203 0 0 0-2.8-.653Zm-55.44 5.04c-.42.327-.887.327-1.307.327h-.747v-2.987h.607c.513 0 1.027.047 1.447.327.28.233.56.56.56 1.166 0 .42-.187.887-.56 1.167Zm1.913-3.92a3.55 3.55 0 0 0-1.353-.747c-.514-.14-1.027-.14-1.68-.14h-3.36v11.387h2.473V19.06h1.26c1.307 0 2.287-.373 2.94-1.026.887-.887.98-2.147.98-2.567-.093-.84-.327-1.96-1.26-2.8Zm57.12-.887v2.147h2.52v9.24h2.473v-9.24h2.52V11.78h-7.513ZM42.187 23.214h6.44v-2.147h-4.013v-2.753h3.827v-2.147h-3.827v-2.193h4.013v-2.147h-6.44v11.387Zm69.347-2.894a1.204 1.204 0 0 1-.467.514c-.42.28-1.026.28-1.4.28h-.793V18.36h.653c.467 0 .98 0 1.4.187.327.14.514.327.607.56.093.187.14.42.14.56-.047.233-.047.467-.14.653Zm-2.707-6.486h.467c.42 0 .793.093 1.073.28.28.186.42.466.42.98 0 .326-.093.56-.186.746-.187.28-.42.42-.7.467-.28.093-.514.093-.654.093h-.466v-2.566h.046Zm3.314 3.22c.14-.094.326-.234.466-.467.28-.373.56-.887.56-1.68 0-.98-.42-1.867-1.073-2.427-.933-.746-2.193-.746-2.8-.746h-2.893V23.12h3.873c.98 0 2.053-.186 2.893-.933.794-.7.98-1.68.98-2.38 0-.607-.14-1.493-.84-2.193-.233-.14-.606-.42-1.166-.56Zm3.36 6.16h6.44v-2.147h-4.014v-2.753h3.827v-2.147h-3.827v-2.193h4.014v-2.147h-6.44v11.387ZM39.854 11.78h-2.473v9.24h-4.107v-9.24h-2.473v11.387h8.073v2.52h2.287V21.02h-1.354v-9.24h.047Zm17.267 4.294h-4.387V11.78h-2.473v11.387h2.473v-4.9h4.387v4.947h2.473V11.78h-2.473v4.294Zm3.453-2.147h2.52v9.24h2.473v-9.24h2.52V11.78h-7.466v2.147h-.047ZM52.454 3.8h-3.407V.394h-2.006v9.1h2.006v-3.92h3.407v3.92h2.007v-9.1h-2.007V3.8ZM40.741 5.947l1.026-2.613 1.027 2.613h-2.053Zm.233-5.553-3.873 9.1h2.193l.793-1.867h3.314l.793 1.867h2.193l-3.78-9.1h-1.633Zm18.76 4.2L63.607.347h-2.566L58.007 3.8V.394h-2.006v9.1h2.006V5.667l.047-.047 3.08 3.874h2.66l-4.06-4.9ZM34.721 7.347c-.187.187-.56.327-1.214.327h-.653V5.62h.7c.653 0 .98.14 1.213.374.187.186.28.466.28.7-.046.233-.093.466-.326.653Zm1.446-2.707c-.7-.653-1.633-.746-2.286-.746h-1.027V2.167h3.36V.394h-5.413v9.1h3.08c.373 0 .886-.047 1.353-.187a2.46 2.46 0 0 0 1.307-.933 2.87 2.87 0 0 0 .513-1.68c0-.887-.327-1.587-.887-2.054Z"/></g><defs><clipPath id="a"><path fill="#fff" d="M0 .3h140v29.4H0z"/></clipPath></defs></svg>
